X:0216
T:To the Weaver gin ye go.
N:no repeat mark for first part
N:very hard to figure out the mode
M:2/4
L:1/16
Q:1/4=100
I: || ::
Z:Jack Campin * www.campin.me.uk * 2009
K:G
(ge)|d2B2-B2(AG)|B2A2-A2(ge)|d2B2 B3`A|B6
(ge)|d2B2-B2(AG)|B2A2-A3``B |dB3``B3`A|B6||
 A2 |d3`e(f2`g2)|a3`b`a2`A2 |d2e2 f2g2|a6
(ba)|g2e2 f2(ed)|e3`f`g2`a2 |b2B2 BcBA|B6:|

